app/graphics/select-none.svg

<?xml version="1.0" encoding="UTF-8" standalone="no"?>
<!-- Created with Inkscape (http://www.inkscape.org/) -->

<svg
   xmlns:dc="http://purl.org/dc/elements/1.1/"
   xmlns:cc="http://creativecommons.org/ns#"
   xmlns:rdf="http://www.w3.org/1999/02/22-rdf-syntax-ns#"
   xmlns:svg="http://www.w3.org/2000/svg"
   xmlns="http://www.w3.org/2000/svg"
   xmlns:sodipodi="http://sodipodi.sourceforge.net/DTD/sodipodi-0.dtd"
   xmlns:inkscape="http://www.inkscape.org/namespaces/inkscape"
   width="90"
   height="90"
   id="svg4874"
   version="1.1"
   inkscape:version="0.48+devel r"
   viewBox="0 0 90 90.000001"
   sodipodi:docname="select-none.svg">
  <defs
     id="defs4876" />
  <sodipodi:namedview
     id="base"
     pagecolor="#ffffff"
     bordercolor="#666666"
     borderopacity="1.0"
     inkscape:pageopacity="0.0"
     inkscape:pageshadow="2"
     inkscape:zoom="12.434498"
     inkscape:cx="10.237647"
     inkscape:cy="53.078139"
     inkscape:document-units="px"
     inkscape:current-layer="g1311"
     showgrid="true"
     showborder="true"
     fit-margin-top="0"
     fit-margin-left="0"
     fit-margin-right="0"
     fit-margin-bottom="0"
     inkscape:snap-bbox="true"
     inkscape:bbox-paths="true"
     inkscape:bbox-nodes="true"
     inkscape:snap-bbox-edge-midpoints="true"
     inkscape:snap-bbox-midpoints="true"
     inkscape:object-paths="true"
     inkscape:snap-intersection-paths="true"
     inkscape:object-nodes="true"
     inkscape:snap-smooth-nodes="true"
     inkscape:snap-midpoints="true"
     inkscape:snap-object-midpoints="true"
     inkscape:snap-center="true"
     showguides="true"
     inkscape:guide-bbox="true">
    <inkscape:grid
       type="xygrid"
       id="grid5451"
       empspacing="6" />
    <sodipodi:guide
       orientation="1,0"
       position="6,77"
       id="guide4063" />
    <sodipodi:guide
       orientation="1,0"
       position="3,78"
       id="guide4065" />
    <sodipodi:guide
       orientation="0,1"
       position="55,84"
       id="guide4067" />
    <sodipodi:guide
       orientation="0,1"
       position="53,87"
       id="guide4069" />
    <sodipodi:guide
       orientation="0,1"
       position="20,3"
       id="guide4071" />
    <sodipodi:guide
       orientation="0,1"
       position="20,6"
       id="guide4073" />
    <sodipodi:guide
       orientation="1,0"
       position="87,7"
       id="guide4075" />
    <sodipodi:guide
       orientation="1,0"
       position="84,7"
       id="guide4077" />
    <sodipodi:guide
       orientation="0,1"
       position="58,81"
       id="guide4074" />
    <sodipodi:guide
       orientation="1,0"
       position="9,74"
       id="guide4076" />
    <sodipodi:guide
       orientation="0,1"
       position="21,9"
       id="guide4078" />
    <sodipodi:guide
       orientation="1,0"
       position="81,4"
       id="guide4080" />
  </sodipodi:namedview>
  <metadata
     id="metadata4879">
    <rdf:RDF>
      <cc:Work
         rdf:about="">
        <dc:format>image/svg+xml</dc:format>
        <dc:type
           rdf:resource="http://purl.org/dc/dcmitype/StillImage" />
        <dc:title></dc:title>
      </cc:Work>
    </rdf:RDF>
  </metadata>
  <g
     inkscape:label="Layer 1"
     inkscape:groupmode="layer"
     id="layer1"
     transform="translate(67.857146,-84.50504)">
    <g
       transform="matrix(0,-1,-1,0,373.50506,516.50504)"
       id="g4845"
       style="display:inline">
      <g
         transform="matrix(0,-1,-1,0,567.36222,615.36221)"
         id="g1311"
         inkscape:export-filename="envelope02.png"
         inkscape:export-xdpi="90"
         inkscape:export-ydpi="90">
        <g
           id="g1313"
           transform="matrix(1.875,0,0,1.875,-366,-1657.8169)">
          <rect
             transform="translate(0,804.3622)"
             y="152"
             x="288"
             height="48"
             width="48"
             id="rect1315"
             style="opacity:0.21171169;fill:none;stroke:none" />
        </g>
        <path
           style="font-size:15px;font-style:normal;font-variant:normal;font-weight:normal;font-stretch:normal;text-align:center;line-height:125%;letter-spacing:0px;word-spacing:0px;writing-mode:lr-tb;text-anchor:middle;fill:#808080;fill-opacity:1;stroke:none;display:inline;font-family:Ubuntu;-inkscape-font-specification:Ubuntu"
           d="M 21 6 C 11 6 6 5.9998033 6 17.626953 L 6 72.373047 C 6 84.000207 11 84 21 84 L 69 84 C 79 84 84 84.000207 84 72.373047 L 84 17.626953 C 84 5.9998033 79 6 69 6 L 21 6 z M 22.867188 12 L 67.132812 12 C 75.065512 12 78 11.999356 78 20.191406 L 78 69.808594 C 78 78.000644 75.065512 78 67.132812 78 L 22.867188 78 C 14.934488 78 12 78.000644 12 69.808594 L 12 20.191406 C 12 11.999356 14.934488 12 22.867188 12 z "
           transform="translate(174,135.36222)"
           id="path4098" />
      </g>
    </g>
  </g>
</svg>

<?xml version="1.0" encoding="UTF-8" standalone="no"?>
<!-- Created with Inkscape (http://www.inkscape.org/) -->
<svg id="svg4874" xmlns:rdf="http://www.w3.org/1999/02/22-rdf-syntax-ns#" xmlns="http://www.w3.org/2000/svg" height="90" viewBox="0 0 90 90.000001" width="90" version="1.1" xmlns:cc="http://creativecommons.org/ns#" xmlns:dc="http://purl.org/dc/elements/1.1/">
 <metadata id="metadata4879">
  <rdf:RDF>
   <cc:Work rdf:about="">
    <dc:format>image/svg+xml</dc:format>
    <dc:type rdf:resource="http://purl.org/dc/dcmitype/StillImage"/>
    <dc:title/>
   </cc:Work>
  </rdf:RDF>
 </metadata>
 <g id="layer1" transform="translate(67.857 -84.505)">
  <g id="g4845" transform="matrix(0 -1 -1 0 373.51 516.51)">
   <g id="g1311" transform="matrix(0 -1 -1 0 567.36 615.36)">
    <g id="g1313" transform="matrix(1.875 0 0 1.875 -366 -1657.8)">
     <rect id="rect1315" opacity=".21171" transform="translate(0 804.36)" height="48" width="48" y="152" x="288" fill="none"/>
    </g>
    <path id="path4098" d="m21 6c-10 0-15-0.0002-15 11.627v54.746c0 11.627 5 11.627 15 11.627h48c10 0 15 0 15-11.627v-54.746c0-11.627-5-11.627-15-11.627h-48zm1.867 6h44.266c7.933 0 10.867-0.001 10.867 8.191v49.618c0 8.192-2.934 8.191-10.867 8.191h-44.266c-7.933 0-10.867 0.001-10.867-8.191v-49.618c0-8.192 2.934-8.191 10.867-8.191z" transform="translate(174 135.36)" fill="#808080"/>
   </g>
  </g>
 </g>
</svg>
